X: 498
T: Cripple Creek
C:Benny Thomasson solo
B: jims roots
M:4/4
L:1/8
Q: 1/4=100
K:A
V:1 
x(3efg || "A"abaf ecAc | "D"defd "A"e2(3efg | abaf ecAc | "E"BAGB "A"A2(3efg |
"A"abaf ecAc | "D"defa "A"eaga | efed cBAc | "E"BAGB "A"A4 ||
"A"cBAc BAFA | "D"cBAF "A"ECEA | ceAc BAFA | "E"EAAB "A"A4 |
"A"A,CEF A2Ac | "D"BAFG "A"ABAF | ECEF AFAc | "E"BAGB "A"A4 ||
% abcbook-tune_id 6298c245e1d1964796a44b97


% abcbook-boost 0
% abcbook-tablature 
% abcbook-transpose 
% abcbook-lastupdated 1654178373857
% abcbook-soundfonts 
% abcbook-repeats 1


